T: Jock Tamson's
M: 4/4
L: 1/8
K: Dmaj
Ad|:fgfe dedB|A2F2 F2FE|DFAd gfed|cdef e2Ad|
fgfe dedB|A2F2 F2A2|FAdf egce|1 d2d2 d2Ad:|2 d2d2 d2ef||
|:gfeg fedf|edcB A2ef|gfeg fedf|e2a2 a2ef|
gfeg fedf|edce dcBA|Bdce dfeg|1 f2d2 d2ef:|2 f2d2 d2||
